X:1
T:(IX. Motettum in festis S. Petri, principis Apostolorum)
T:M. Haller
T:(IX. Motettum in festis S. Petri, principis Apostolorum)
C:M. Haller
%%score { ( 1 2 ) | ( 3 4 ) }
L:1/8
Q:1/4=76
M:4/4
K:G
V:1 treble nm="P1"
V:2 treble 
V:3 bass 
V:4 bass 
V:1
!p!"^Maestoso" G4 B4 |"^-""^-""^-""^-""^-" A8 | [GB]8 |!mf!!<(! B4 d4!<)! |"^-""^-""^-""^-" e8 | %5
w: Tu es|Pe-|trus,|tu es|Pe-|
w: Tu es|Pe-|trus,|||
 !fermata!d4 z2!p! A2 | A4 G2 E2 | F4 A2 A2 | d4 ^c2!>(! B2 | B4!>)!"^-" ^A2 A2 | %10
w: trus, et|su- per hanc|pe- tram, et|su- per hanc|pe- tram ae-|
w: |||||
!<(! B2 ^c2!<)! d4 | d2 B2 =c2 d2 | e4!f! e2 d2 | e2 f2 g4 | d2 e2 d3"^-" c |!>(! B4"^-" A4!>)! | %16
w: di- fi- ca-|bo, ae- di- fi-|ca- bo, ae-|di- fi- ca-|bo Ec- cle- si-|am me-|
w: ||||||
!<(! B2 d2 e2!<)! f2 | g4 d2 e2 |!>(! d3 c!>)! B4 |"^-" A8 | !fermata![GG]8 |] %21
w: am, ae- di- fi-|ca- bo Ec-|cle- si- am|me-|am.|
w: |||||
V:2
 D4 G4- | G2!>(! (FE!>)! F4) | x8 | G4 A4 | (G2 B2!>(! A2 G2)!>)! | F4 z2 F2 | E4 D2 E2 | %7
 D4 F2 F2 | F4 F2 F2- | F2 E2 F2 F2 | F2 =A2 A4 | G3 =F E2 (DG) | G4 G2 G2 | G2 c2 B4 | %14
 B2 G2 F3 F | G2 (G4 F2) | G2 G2 G2 A2 | G4 G2 G2 | A2 F2 G4- | G4 F4 | x8 |] %21
V:3
!p! B,4 D4 |!>(! [D,D]8!>)! |!mf! [G,D]8 |!<(! D4!<)! D4- | D2 ^C"^-"B,"^-"!>(! C4!>)! | %5
w: |||||
w: |||||
w: |||tu es|Pe- * * *|
 D4 z2!p! D2 | A,2 ^C2 B,2 A,2 | A,4 D2 A,2 | B,4 ^C2!>(! D2!>)! | D2 ^CB, C2 C2 | %10
w: |||||
w: |||||
w: trus, *|||||
!<(! D2 E2!<)! F2 E2 | D2 D2 C2 G=F | E4!f! C2 D2 | C2 C2 D4 | D2 C2 A,3"^-" A, | %15
w: |||||
w: |||||
w: |||||
!>(! G,2 B,2 E2!>)! D2 |!<(! D2 D2 C2!<)! C2 | D4 B,2 C2 |!>(! A,2 D2!>)! D4 | E4 D2 C2 | %20
w: |||||
w: |||||
w: am * me- *|am, * * *||||
 !fermata![G,,G,B,]8 |] %21
w: |
w: |
w: |
V:4
 G,4 G,4 | x8 | x8 | G,4 F,4 | E,4 A,4 | !fermata!D,4 z2 D,2 | ^C,2 A,,2 B,,2 C,2 | D,4 D,2 ^C,2 | %8
 B,,2 B,2 ^A,2 B,2 | G,4 F,2 F,2 | B,2 =A,2 D2 =C2 | B,2 G,2 A,2 B,2 | C4 C2 B,2 | C2 A,2 G,4 | %14
 G,2 C,2 D,3 D, | E,4 C,2 D,2 | G,2 B,2 C2 A,2 | B,4 G,2 E,2 | F,2 D,2 G,4 | C,4 D,4 | x8 |] %21

